X:7975
T:Waterfall Waltz
O:England
M:3/4
L:1/8
Q:1/4=
K:D
V:1
"D" [d6A6 HF6]  |:d2 |"D" A2 AB AG |F2 A2 D2 |
"Em" G2 GA GF |"A" E4 d2 |"D" A2 AB AG |"Bm" F2 A2 D2 |
"Em" G2 F2 "A7" E2 |"D" D4  :|D2 |"D" F3 EF G|
"A" A4 A2 |"Bm" F3 EF G|"F#m" A4 A2 |"Bm" d3 cd e|
"A" c3 BA2 |"D" d2 df "G" eg |"D" f4 e2  |"Bm" dc de d2 |
"F#m" c3 BA2 |"Bm" d2 F2 "E7" ^G2 |"A" A4 d2 |"D" A2 AB AG |
"Bm" F2 A2 D2 |"Em" G2 F2 "A7" E2 |"D" D4    |:
K:Am
E2 |"Am" A4 B2 |c2 B2 A2 |e2 dc BA |
"E" B4 E2 |"Am" A2 Ac "Dm" Bd |"Am" c3 BA2 |"E7" ^G2 ^GB Ac |
"E" B4  :|B2 |"Am" c4 c2 |"G" d4 d2 |
"C" e2 e2 "F" f2 |"C" e4 "G7" d2 |"Am" cB cd c2 |"G" dc de d2 |
"C" ed ef ef |"G" g3 fe d |"C" c Bc de c|"Dm" d cd ef d|
"Am" e2 e2 a2 |"E" ^g4 b2 |"Am" a2 e2 c2 |"Dm" f2 e2 d2 |
"E7" c2 dc Bc |"Am" A4 |]
K:D
"Em" G2 F2 "A7" .E2 |"D" HD4 |]
